!!!COM: L. van BEETHOVEN
!!!OTL: String Quartet Op.18 No.5
**kern	**dynam	**kern	**dynam	**kern	**dynam	**kern	**dynam	**mxhm
*part4	*part4	*part3	*part3	*part2	*part2	*part1	*part1	*part1
*staff4	*	*staff3	*	*staff2	*	*staff1	*	*
*I"Violoncello	*	*I"Viola	*	*I"Violin 2	*	*I"Violin 1	*	*
*clefF4	*	*clefC3	*	*clefG2	*	*clefG2	*	*
*k[f#c#]	*	*k[f#c#]	*	*k[f#c#]	*	*k[f#c#]	*	*
*M3/4	*	*M3/4	*	*M3/4	*	*M3/4	*	*
!	!	!	!	!	!	!LO:TX:a:B:t=Menuetto	!	!
*MM125	*	*MM125	*	*MM125	*	*MM125	*	*
!	!	!	!	!	!	!LO:TX:a:t=[quarter]=125	!	!
4r	.	4r	.	4r	.	4ff#'	p	.A.I
=1	=1	=1	=1	=1	=1	=1	=1	=1
2.r	.	2.r	.	4r	.	2.aa	.	.
.	.	.	.	(4ff#	p	.	.	.
.	.	.	.	4dd)	.	.	.	.
=2	=2	=2	=2	=2	=2	=2	=2	=2
2.r	.	2.r	.	4r	.	2.ee	.	V
.	.	.	.	(4cc#	.	.	.	.
.	.	.	.	4a)	.	.	.	.
=3	=3	=3	=3	=3	=3	=3	=3	=3
2.r	.	2.r	.	4r	.	(8ggL	.	I
.	.	.	.	.	.	8ff#)	.	.
.	.	.	.	(4f#	.	(8ee	.	.
.	.	.	.	.	.	8dd)	.	.
.	.	.	.	4d)	.	(8cc#	.	.
.	.	.	.	.	.	8ddJ)	.	.
=4	=4	=4	=4	=4	=4	=4	=4	=4
2.r	.	2.r	.	4a	.	(4ff#	.	V(6)
.	.	.	.	4r	.	4ee)	.	V\\
.	.	.	.	4r	.	4ff#'	.	.
=5	=5	=5	=5	=5	=5	=5	=5	=5
2.r	.	2.r	.	4r	.	2.aa	.	I
.	.	.	.	(4ff#	.	.	.	.
.	.	.	.	4dd)	.	.	.	.
=6	=6	=6	=6	=6	=6	=6	=6	=6
2.r	.	2.r	.	4r	.	2ff#	.	.
.	.	.	.	(4dd	.	.	.	.
.	.	.	.	4b)	.	4ff#	.	vi
=7	=7	=7	=7	=7	=7	=7	=7	=7
2.r	.	2.r	.	4r	.	2.ddd	.	#viio/V
.	.	.	.	(4bb	.	.	.	.
.	.	.	.	4gg#X)	.	.	.	.
=8	=8	=8	=8	=8	=8	=8	=8	=8
2.r	.	2.r	.	4r	.	2gg#X	.	V/V
.	.	.	.	(4ee	.	.	.	.
.	.	.	.	4dd)	.	4gg#	.	V2/V
=9	=9	=9	=9	=9	=9	=9	=9	=9
2.r	.	2.r	.	4r	.	2.eee	.	V
.	.	.	.	(4cc#	.	.	.	.
.	.	.	.	4a)	.	.	.	.
=10	=10	=10	=10	=10	=10	=10	=10	=10
2.r	.	2.r	.	4r	.	(8dddL	.	.
.	.	.	.	.	.	8ccc#)	.	.
.	.	.	.	(4ff#	.	(8bb	.	V.IV6
.	.	.	.	.	.	8aa)	.	.
.	.	.	.	4ee)	.	(8gg#X	.	V
.	.	.	.	.	.	8aaJ)	.	.
=11	=11	=11	=11	=11	=11	=11	=11	=11
2.r	.	2.r	.	(4dd	.	(4bb	.	ii6
.	.	.	.	4b)	.	4ddd)	.	ii
.	.	.	.	4ee'	.	4gg#X'	.	V
=12	=12	=12	=12	=12	=12	=12	=12	=12
2.r	.	4r	.	4a'	.	4aa'	.	I\\
.	.	4r	.	4r	.	4r	.	.
.	.	4f#'	p	4r	.	4r	.	.
=13	=13	=13	=13	=13	=13	=13	=13	=13
!	!	!	!LO:DY:a	!	!	!	!	!
4r	.	2.a	p	4r	.	4r	.	I.I
(4f#	p	.	.	(4d	.	(4dd	p	.
4d)	.	.	.	4f#)	.	4ff#)	.	.
=14	=14	=14	=14	=14	=14	=14	=14	=14
4r	.	2.e	.	4r	.	4r	.	V
(4c#	.	.	.	(4a	.	(4aa	.	.
4A)	.	.	.	4cc#)	.	4ccc#)	.	.
=15	=15	=15	=15	=15	=15	=15	=15	=15
4r	.	(8gL	.	4r	.	4r	.	I6
.	.	8f#)	.	.	.	.	.	.
(4F#	.	(8e	.	(4dd	.	(4ddd	.	.
.	.	8d)	.	.	.	.	.	.
4D)	.	(8c#	.	4ff#)	.	4fff#)	.	I
.	.	8dJ)	.	.	.	.	.	.
=16	=16	=16	=16	=16	=16	=16	=16	=16
4AA	.	(4f#	.	4aa	.	4aaa	.	V\\
4r	.	4e)	.	4r	.	4r	.	.
4r	.	4f#'	.	4r	.	4r	.	.
=17	=17	=17	=17	=17	=17	=17	=17	=17
4r	.	2.a	.	4r	.	4r	.	I
(4f#	.	.	.	(4d	.	(4dd	.	.
4d)	.	.	.	4f#)	.	4ff#)	.	.
=18	=18	=18	=18	=18	=18	=18	=18	=18
4r	.	2f#	.	4r	.	4r	.	.
(4d	.	.	.	(4f#	.	(4ff#	.	.
4B)	.	4f#	.	4dd)	.	4ddd)	.	vi
=19	=19	=19	=19	=19	=19	=19	=19	=19
4r	.	2.dd	.	4r	.	4r	.	#viio/V
(4B	.	.	.	(4g#X	.	(4gg#X	.	.
4G#X)	.	.	.	4b)	.	4bb)	.	.
=20	=20	=20	=20	=20	=20	=20	=20	=20
4r	.	2g#X	.	4r	.	4r	.	V6/V
(4E	.	.	.	(4b	.	(4bb	.	V/V
4D)	.	4g#	.	4ee)	.	4eee)	.	V2/V
=21	=21	=21	=21	=21	=21	=21	=21	=21
4r	.	2.ee	.	4r	.	4r	.	V
(4C#	.	.	.	(4a	.	(4aa	.	.
4AA)	.	.	.	4cc#)	.	4ccc#)	.	.
=22	=22	=22	=22	=22	=22	=22	=22	=22
4r	.	(8ddL	.	4r	.	4r	.	.
.	.	8cc#)	.	.	.	.	.	.
(4F#	.	(8b	.	(4cc#	.	(4ccc#	.	V.vi
.	.	8a)	.	.	.	.	.	.
4E)	.	(8g#X	.	4aa)	.	4aaa)	.	V(64)
.	.	8aJ)	.	.	.	.	.	.
=23	=23	=23	=23	=23	=23	=23	=23	=23
(4D	.	(4b	.	4r	.	4r	.	ii6
4BB)	.	4dd)	.	4ff#'	.	4fff#'	.	ii
4E'	.	4g#X'	.	4dd'	.	4ddd'	.	V7
=24	=24	=24	=24	=24	=24	=24	=24	=24
4AA'	.	4a'	.	4cc#'	.	4ccc#'	.	I\\
4r	.	4r	.	4r	.	4r	.	.
4r	.	4r	.	4r	.	4a	.	.
=25!|:	=25!|:	=25!|:	=25!|:	=25!|:	=25!|:	=25!|:	=25!|:	=25!|:
4A	p	(2.c#	p	(2.e	p	2.gg	p	I.V[viio
4A	.	.	.	.	.	.	.	.
4A	.	.	.	.	.	.	.	.
=26	=26	=26	=26	=26	=26	=26	=26	=26
4A	.	2.d	.	2.f#	.	(8ff#L	.	I
.	.	.	.	.	.	8aa)	.	.
4A	.	.	.	.	.	8gg'	.	.
.	.	.	.	.	.	8ff#'	.	.
4A	.	.	.	.	.	8ee'	.	.
.	.	.	.	.	.	8dd'J	.	.
=27	=27	=27	=27	=27	=27	=27	=27	=27
4A	.	4e)	.	4g)	.	8cc#'L	.	V43
.	.	.	.	.	.	8a'	.	.
4r	.	4r	.	4r	.	8cc#'	.	.
.	.	.	.	.	.	8ee'	.	.
4r	.	4r	.	4r	.	8aa'	.	.
.	.	.	.	.	.	8bb'J	.	.
=28	=28	=28	=28	=28	=28	=28	=28	=28
2.r	.	2.r	.	2.r	.	8ccc#'L	.	.
.	.	.	.	.	.	8aa'	.	.
.	.	.	.	.	.	8ccc#'	.	.
.	.	.	.	.	.	8ddd'	.	.
.	.	.	.	.	.	8eee'	.	.
.	.	.	.	.	.	8fff#'J	.	.
=29	=29	=29	=29	=29	=29	=29	=29	=29
4a	p	(2.cc#	p	(2.ee	p	2.ggg	p	viio
4a	.	.	.	.	.	.	.	.
4a	.	.	.	.	.	.	.	.
=30	=30	=30	=30	=30	=30	=30	=30	=30
4a	.	2.dd	.	2.ff#	.	(8fff#L	.	I
.	.	.	.	.	.	8aaa)	.	.
4a	.	.	.	.	.	8ggg'	.	.
.	.	.	.	.	.	8fff#'	.	.
4a	.	.	.	.	.	8eee'	.	.
.	.	.	.	.	.	8ddd'J	.	.
=31	=31	=31	=31	=31	=31	=31	=31	=31
4a	.	4ee)	.	4gg)	.	8ccc#'L	.	V43]
.	.	.	.	.	.	8bb'	.	.
4r	.	4r	.	4r	.	8aa'	.	.
.	.	.	.	.	.	8gg#X'	.	.
4r	.	4r	.	4r	.	8aa'	.	.
.	.	.	.	.	.	8bb'J	.	.
=32	=32	=32	=32	=32	=32	=32	=32	=32
2.r	.	2.r	.	2.r	.	8ccc#L	.	.
.	.	.	.	.	.	8ddd	.	.
.	.	.	.	.	.	8ddd#X	.	.
.	.	.	.	.	.	8eee	.	.
.	.	.	.	.	.	8eee#X	.	.
.	.	.	.	.	.	8fff#J	.	.
=33	=33	=33	=33	=33	=33	=33	=33	=33
4A#X	p	4r	.	4r	.	8gggL	.	#viio7/vi
.	.	.	.	.	.	8eee	.	.
4r	.	(4cc#	p	(4ee	p	8ccc#	.	.
.	.	.	.	.	.	8gg	.	.
4r	.	4ee)	.	4gg)	.	8ggg	.	.
.	.	.	.	.	.	8gggJ	.	.
=34	=34	=34	=34	=34	=34	=34	=34	=34
4B	.	4r	.	4r	.	8fff#L	.	vi
.	.	.	.	.	.	8ddd	.	.
4r	.	(4f#	.	(4dd	.	8bb	.	.
.	.	.	.	.	.	8ff#	.	.
4r	.	4dd)	.	4ff#)	.	8fff#	.	.
.	.	.	.	.	.	8fff#J	.	.
=35	=35	=35	=35	=35	=35	=35	=35	=35
4c#	.	4r	.	4r	.	8fff#L	.	iii64
.	.	.	.	.	.	8ccc#	.	.
4r	.	(4f#	.	(4a	.	8aa	.	.
.	.	.	.	.	.	8ff#	.	.
4r	.	4a)	.	4ff#)	.	8fff#	.	.
.	.	.	.	.	.	8fff#J	.	.
=36	=36	=36	=36	=36	=36	=36	=36	=36
4d	.	4r	.	4r	.	8fff#L	.	iii.Ger6
.	.	.	.	.	.	8bb#X	.	.
4r	.	(4f#	.	(4a	.	8aa	.	.
.	.	.	.	.	.	8ff#	.	.
4r	.	4a)	.	4ff#)	.	8fff#	.	.
.	.	.	.	.	.	8fff#J	.	.
=37	=37	=37	=37	=37	=37	=37	=37	=37
4c#	.	4r	.	4r	.	8ccc#L	.	V(64)
.	.	.	.	.	.	8aa	.	.
4r	.	(4f#	.	(4a	.	8ff#	.	.
.	.	.	.	.	.	8cc#	.	.
4r	.	4a)	.	4cc#)	.	8cc#	.	.
.	.	.	.	.	.	8cc#J	.	.
=38	=38	=38	=38	=38	=38	=38	=38	=38
4C#	.	4r	.	4r	.	8cc#L	.	V
.	.	.	.	.	.	8g#X	.	.
4r	.	4B	.	4c#	.	8e#X	.	.
.	.	.	.	.	.	8c#	.	.
4r	.	4B	.	4c#	.	8c#	.	.
.	.	.	.	.	.	8c#J	.	.
=39	=39	=39	=39	=39	=39	=39	=39	=39
!LO:TX:b:t=cresc.	!	!LO:TX:b:t=cresc.	!	!LO:TX:b:t=cresc.	!	!LO:TX:b:t=cresc.	!	!
(4FF#'	.	(2.A	.	(2.c#	.	(2.f#	.	i[i6
4FF#'	.	.	.	.	.	.	.	.
4FF#')	.	.	.	.	.	.	.	.
=40	=40	=40	=40	=40	=40	=40	=40	=40
(4FF#'	.	2.c#)	.	2.f#)	.	2.a)	.	i64
4FF#'	.	.	.	.	.	.	.	.
4FF#')	.	.	.	.	.	.	.	.
=41	=41	=41	=41	=41	=41	=41	=41	=41
(4FF#'	.	(4.d	.	[2.e#X	.	(2.g#X	.	V
4FF#'	.	.	.	.	.	.	.	.
.	.	8c#L	.	.	.	.	.	.
4FF#')	.	8d	.	.	.	.	.	.
.	.	8c#J)	.	.	.	.	.	.
=42	=42	=42	=42	=42	=42	=42	=42	=42
(4FF#'	.	4B	.	2e#]	.	2cc#	.	V2
4FF#'	.	4B	.	.	.	.	.	.
4FF#')	.	4B	.	(8dL	.	4e#X	.	.
.	.	.	.	8c#J)	.	.	.	.
=43	=43	=43	=43	=43	=43	=43	=43	=43
(4FF#'	.	2.A	.	2.c#	.	4f#)	.	i6
.	.	.	.	.	.	8qg#X/	.	.
4FF#'	.	.	.	.	.	(8f#L	.	.
.	.	.	.	.	.	8e#X	.	.
4FF#')	.	.	.	.	.	8f#	.	.
.	.	.	.	.	.	8g#J)	.	.
=44	=44	=44	=44	=44	=44	=44	=44	=44
4F#'	ff	4A'	ff	4a'	ff	4a'	ff	i6]
4F#'	.	4A'	.	4a'	.	4a'	.	i
4F#'	.	4A'	.	4a'	.	4a'	.	.
=45	=45	=45	=45	=45	=45	=45	=45	=45
2.r	.	2.r	.	2.r	.	2.r	.	.
=46	=46	=46	=46	=46	=46	=46	=46	=46
2.r	.	2.r	.	2.r	.	4r	.	.
.	.	.	.	.	.	4r	.	.
.	.	.	.	.	.	(4ff#	p	.
=47	=47	=47	=47	=47	=47	=47	=47	=47
2.r	.	2.r	.	4r	.	2.aa)	.	I.I
.	.	.	.	(4ff#	p	.	.	.
.	.	.	.	4dd)	.	.	.	.
=48	=48	=48	=48	=48	=48	=48	=48	=48
2.r	.	2.r	.	4r	.	2.ee	.	V
.	.	.	.	(4cc#	.	.	.	.
.	.	.	.	4a)	.	.	.	.
=49	=49	=49	=49	=49	=49	=49	=49	=49
2.r	.	2.r	.	4r	.	(8ggL	.	I
.	.	.	.	.	.	8ff#)	.	.
.	.	.	.	(4f#	.	(8ee	.	.
.	.	.	.	.	.	8dd)	.	.
.	.	.	.	4d)	.	(8cc#	.	.
.	.	.	.	.	.	8ddJ)	.	.
=50	=50	=50	=50	=50	=50	=50	=50	=50
2.r	.	2.r	.	4a	.	(4ff#	.	V(6)
.	.	.	.	4r	.	4ee)	.	V\\
.	.	.	.	4r	.	4ff#'	.	.
=51	=51	=51	=51	=51	=51	=51	=51	=51
2.r	.	2.r	.	4r	.	2.aa	.	I
.	.	.	.	(4ff#	.	.	.	.
.	.	.	.	4dd)	.	.	.	.
=52	=52	=52	=52	=52	=52	=52	=52	=52
2.r	.	2.r	.	4r	.	2ff#	.	I
.	.	.	.	(4dd	.	.	.	.
.	.	.	.	4b)	.	4ff#	.	vi
=53	=53	=53	=53	=53	=53	=53	=53	=53
2.r	.	2.r	.	4r	.	2.ddd	.	#viio/V
.	.	.	.	(4bb	.	.	.	.
.	.	.	.	4gg#X)	.	.	.	.
=54	=54	=54	=54	=54	=54	=54	=54	=54
2.r	.	2.r	.	4r	.	2gg#X	.	V/V
.	.	.	.	(4ee	.	.	.	.
.	.	.	.	4dd)	.	4gg#	.	V2/V
=55	=55	=55	=55	=55	=55	=55	=55	=55
2.r	.	2.r	.	4r	.	2.eee	.	IV.ii
.	.	.	.	(4cc	.	.	.	.
.	.	.	.	4a)	.	.	.	.
=56	=56	=56	=56	=56	=56	=56	=56	=56
2.r	.	2.r	.	4r	.	(8dddL	.	.
.	.	.	.	.	.	8ccc	.	.
.	.	.	.	(4ee	.	8bb	.	ii64
.	.	.	.	.	.	8aa	.	.
.	.	.	.	4cc)	.	8ccc	.	ii6
.	.	.	.	.	.	8aaJ)	.	.
=57	=57	=57	=57	=57	=57	=57	=57	=57
2.r	.	4r	.	4r	.	(2gg	.	V(64)
.	.	4r	.	4dd	.	.	.	.
.	.	.	.	.	.	16qqaa/LL	.	.
.	.	.	.	.	.	16qqgg/	.	.
.	.	.	.	.	.	16qqff#/	.	.
.	.	.	.	.	.	16qqgg/JJ	.	.
.	.	4d	p	4d	.	8bbL	.	.
.	.	.	.	.	.	8aaJ)	.	V
=58	=58	=58	=58	=58	=58	=58	=58	=58
4r	.	2.dd	.	4g	.	4gg	.	I\\
(4B	p	.	.	4r	.	4r	.	.
4G)	.	.	.	4r	.	4r	.	.
=59	=59	=59	=59	=59	=59	=59	=59	=59
4r	.	2.a	.	4r	.	2.r	.	V
(4F#	.	.	.	4r	.	.	.	.
4D)	.	.	.	4f#	p	.	.	.
=60	=60	=60	=60	=60	=60	=60	=60	=60
4r	.	(8ccL	.	2.dd	.	2.r	.	I6
.	.	8b)	.	.	.	.	.	.
(4GG	.	(8a	.	.	.	.	.	.
.	.	8g)	.	.	.	.	.	.
4BB)	.	(8f#	.	.	.	.	.	.
.	.	8gJ)	.	.	.	.	.	.
=61	=61	=61	=61	=61	=61	=61	=61	=61
4r	.	(8gL	.	2.a	.	4r	.	V
.	.	8f#)	.	.	.	.	.	.
(4D	.	(8e	.	.	.	4r	.	.
.	.	8d)	.	.	.	.	.	.
4c)	.	(8e	.	.	.	4dd	p	V2
.	.	8f#J)	.	.	.	.	.	.
=62	=62	=62	=62	=62	=62	=62	=62	=62
4r	.	(4g	.	(8ccL	.	2.ddd	.	I6
.	.	.	.	8b)	.	.	.	.
(4B	.	4dd)	.	(8a	.	.	.	.
.	.	.	.	8g)	.	.	.	.
4D)	.	4r	.	(8f#	.	.	.	.
.	.	.	.	8gJ)	.	.	.	.
=63	=63	=63	=63	=63	=63	=63	=63	=63
4r	.	(4d	.	(8gL	.	2.aa	.	V
.	.	.	.	8f#)	.	.	.	.
(4F#	.	4a)	.	(8e	.	.	.	.
.	.	.	.	8d)	.	.	.	.
4D)	.	4r	.	(8c#	.	.	.	.
.	.	.	.	8dJ)	.	.	.	.
=64	=64	=64	=64	=64	=64	=64	=64	=64
4r	.	(4d	.	2.dd	.	(8cccL	.	I
.	.	.	.	.	.	8bb)	.	.
(4G	.	4b)	.	.	.	(8aa	.	.
.	.	.	.	.	.	8gg)	.	.
4D)	.	4r	.	.	.	(8ff#	.	V(64)
.	.	.	.	.	.	8ggJ)	.	.
=65	=65	=65	=65	=65	=65	=65	=65	=65
4r	.	(4d	.	8f#L	.	(4bb	.	V(6)
.	.	.	.	8dd	.	.	.	.
(4d	.	4cc)	.	8ff#	.	4aa)	.	V7
.	.	.	.	8dd	.	.	.	.
4c)	.	4r	.	8aa	.	4dd	.	V2
.	.	.	.	8ff#J	.	.	.	.
=66	=66	=66	=66	=66	=66	=66	=66	=66
!	!	!LO:TX:b:t=cresc.	!	!	!	!LO:TX:b:t=cresc.	!	!
4r	.	(4b	.	4gg	.	2.ddd	.	I
!LO:TX:b:t=cresc.	!	!	!	!	!	!	!	!
(4B	.	4g)	.	4r	.	.	.	.
4G)	.	4r	.	[4dd	.	.	.	.
=67	=67	=67	=67	=67	=67	=67	=67	=67
!	!	!	!	!LO:TX:b:t=cresc.	!	!	!	!
4r	.	(4d	.	2dd]	.	2bb	.	.
(4F#	.	4g)	.	.	.	.	.	.
4G)	.	4r	.	[4b	.	4bb	.	.
=68	=68	=68	=68	=68	=68	=68	=68	=68
4r	.	(4e	.	2b]	.	2.ggg	.	vi
(4D#X	.	4g)	.	.	.	.	.	.
4E)	.	4r	.	[4gg	.	.	.	.
=69	=69	=69	=69	=69	=69	=69	=69	=69
4r	.	(4e	.	4gg]	.	2ccc#	.	I.V7
(4A	.	4a)	.	4cc#	.	.	.	.
4G)	.	4r	.	[4aa	.	4ccc#	.	V2
=70	=70	=70	=70	=70	=70	=70	=70	=70
4r	.	(4f#	.	2aa]	.	2.aaa	.	I6
(4E#X	.	4d)	.	.	.	.	.	.
4F#)	.	4r	.	[4dd	.	.	.	.
=71	=71	=71	=71	=71	=71	=71	=71	=71
4r	.	(4f#	.	2dd]	.	(8gggL	.	.
.	.	.	.	.	.	8fff#)	.	.
(4B	.	4b)	.	.	.	(8eee	.	IV
.	.	.	.	.	.	8ddd)	.	.
4A)	.	([4b	.	4ff#	.	(8ccc#	.	vi2
.	.	.	.	.	.	8dddJ)	.	.
=72	=72	=72	=72	=72	=72	=72	=72	=72
(4G	f	4b]	f	(4bb	f	(4ddd	f	IV
4E)	.	4g)	.	4gg)	.	4ggg)	.	ii
4A'	.	4e'	.	4gg'	.	4ccc#'	.	V7
=73	=73	=73	=73	=73	=73	=73	=73	=73
4D'	.	4d'	.	4ff#'	.	4ddd'	.	I\\
4r	.	4r	.	4r	.	4r	.	.
4r	.	4r	.	4r	.	4a	p	.
=74	=74	=74	=74	=74	=74	=74	=74	=74
2.g	p	2.a	p	2.cc#	p	2.ee	.	V2
=75	=75	=75	=75	=75	=75	=75	=75	=75
2.f#	.	2.a	.	2.dd	.	2.ff#	.	I6
=76	=76	=76	=76	=76	=76	=76	=76	=76
.	.	.	.	.	.	8qaa/	.	V43
4e'	.	4a'	.	4cc#'	.	(8ggL	.	.
.	.	.	.	.	.	8ff#)	.	.
4c#'	.	4a'	.	4ee'	.	8gg'	.	V65
.	.	.	.	.	.	8ee'	.	.
4A'	.	4a'	.	4cc#'	.	8aa'	.	V7
.	.	.	.	.	.	8gg'J	.	.
=77	=77	=77	=77	=77	=77	=77	=77	=77
4d'	.	4a'	.	4a'	.	4ff#'	.	I\\
4r	.	4r	.	4r	.	4ddd'	.	.
4r	.	4r	.	4r	.	4r	.	.
=78	=78	=78	=78	=78	=78	=78	=78	=78
!LO:TX:b:t=cresc.	!	!LO:TX:b:t=cresc.	!	!LO:TX:b:t=cresc.	!	!LO:TX:a:t=cresc.	!	!
2.G	.	2.c#	.	2.a 2.ee	.	2.eee	.	V2
=79	=79	=79	=79	=79	=79	=79	=79	=79
2.F#	.	2.d	.	2.a 2.ff#	.	2.fff#	.	I6
=80	=80	=80	=80	=80	=80	=80	=80	=80
2E	sfp	(4d	sfp	([4b	sfp	4.aaa	sfp	ii7(4)
.	.	4dd)	.	8bL]	.	.	.	.
.	.	.	.	8gg)	.	8ggg'L	.	ii7
4A	.	4cc#	.	8gg'	.	8fff#'	.	V7
.	.	.	.	8gg'J	.	8eee'J	.	.
=81	=81	=81	=81	=81	=81	=81	=81	=81
4D	.	4dd	.	4ff#	.	4ddd	.	I\\
4r	.	4r	.	4r	.	4r	.	.
4r	.	4r	.	4r	.	4a	.	.
=:|!	=:|!	=:|!	=:|!	=:|!	=:|!	=:|!	=:|!	=:|!
4D	.	4dd	.	4ff#	.	4ddd	.	.
4r	.	4r	.	4r	.	4r	.	.
=82!|:	=82!|:	=82!|:	=82!|:	=82!|:	=82!|:	=82!|:	=82!|:	=82!|:
!	!	!	!	!	!	!LO:TX:a:B:t=Trio	!	!
4r	.	4A	.	4a	.	4r	.	.
=83	=83	=83	=83	=83	=83	=83	=83	=83
2D	p	(4F#	.	(4f#	.	2ff# 2aa	p	I
.	.	4A	.	4a	.	.	.	.
4AA	sf	4d)	sf	4dd)	sf	4ff# 4aa	sf	I64
=84	=84	=84	=84	=84	=84	=84	=84	=84
2E	.	(4d	.	(4dd	.	2gg 2aa	.	V43
.	.	4c#	.	4cc#	.	.	.	.
4AA	sf	4d)	sf	4dd)	sf	4gg 4aa	sf	V7
=85	=85	=85	=85	=85	=85	=85	=85	=85
2G	.	4e	.	4ee	.	2a 2aa	.	V2
.	.	8qf#/	.	8qff#/	.	.	.	.
.	.	(8eL	.	(8eeL	.	.	.	.
.	.	8d#X	.	8dd#X	.	.	.	.
4AA	sf	8e	.	8ee	.	4a 4aa	sf	V7
.	.	8f#J)	.	8ff#J)	.	.	.	.
=86	=86	=86	=86	=86	=86	=86	=86	=86
2F#	.	(4e	.	(4ee	.	2a 2aa	.	I6
.	.	4d)	.	4dd)	.	.	.	.
4F	sf	([4d	sf	([4dd	sf	4a 4aa	sf	V.iv6
=87	=87	=87	=87	=87	=87	=87	=87	=87
2E	.	4d]	.	4dd]	.	2a 2aa	.	I64
.	.	4c#)	.	4cc#)	.	.	.	.
4D#X	sf	([4c	sf	([4cc	sf	4a 4aa	sf	#viio7/V
=88	=88	=88	=88	=88	=88	=88	=88	=88
2E	.	4c]	.	4cc]	.	2a 2aa	.	V
.	.	4B)	.	4b)	.	.	.	.
4e	sf	4c#X	sf	4cc#X	sf	[4aa	sf	V(64)
=89	=89	=89	=89	=89	=89	=89	=89	=89
2E	.	(4d	.	(4dd	.	4aa]	.	V7(4)
.	.	4B	.	4b	.	(4aa	.	.
4e	.	4e)	.	4ee)	.	4gg#X)	.	V7
=	=	=	=	=	=	=	=	=
4A	.	4A	.	4a	.	4aa	.	I\\
4r	.	4r	.	4r	.	4r	.	.
=90:|!|:	=90:|!|:	=90:|!|:	=90:|!|:	=90:|!|:	=90:|!|:	=90:|!|:	=90:|!|:	=90:|!|:
4r	.	4a	p	4r	.	4r	.	.
=91	=91	=91	=91	=91	=91	=91	=91	=91
4f#	p	(4aa	.	[2.a	.	2.r	.	I
4c#	.	4ee	.	.	.	.	.	.
4d	.	4ff#	.	.	.	.	.	.
=92	=92	=92	=92	=92	=92	=92	=92	=92
4e	.	4gg	.	2.a_	.	2.r	.	V6
4B	.	4dd	.	.	.	.	.	.
4c#	.	4ee	.	.	.	.	.	.
=93	=93	=93	=93	=93	=93	=93	=93	=93
4d	.	4ff#	.	4a]	.	2.r	.	#viio6/V
4c#	.	4ee	.	(4a	.	.	.	.
4B	.	4dd	.	4g#X	.	.	.	.
=94	=94	=94	=94	=94	=94	=94	=94	=94
4A	.	4cc#)	.	4a)	.	4r	.	V
4r	.	4A	.	(8gg#XL	.	4r	.	.
.	.	.	.	8aa)	.	.	.	.
4r	.	4A	.	(8gg#	.	4aa	.	.
.	.	.	.	8aaJ)	.	.	.	.
=95	=95	=95	=95	=95	=95	=95	=95	=95
!LO:TX:b:t=cresc.	!	!LO:TX:b:t=cresc	!	!LO:TX:b:t=cresc.	!	!LO:TX:b:t=cresc.	!	!
(4F#	.	[2.A	.	(4aa	.	(4aaa	.	I6
4C#	.	.	.	4ee	.	4eee	.	V6
4D	.	.	.	4ff#	.	4fff#	.	I
=96	=96	=96	=96	=96	=96	=96	=96	=96
4E	.	2.A_	.	4gg	.	4ggg	.	V43
4BB	.	.	.	4dd	.	4ddd	.	vi7
4C#	.	.	.	4ee	.	4eee	.	V6
=97	=97	=97	=97	=97	=97	=97	=97	=97
4D	.	4A]	.	4ff#	.	4fff#	.	I
4C#	.	4a	.	4ee	.	4eee	.	V6
4BB	.	[4a	.	4dd	.	4ddd	.	vi7
=98	=98	=98	=98	=98	=98	=98	=98	=98
4AA)	.	(4a]	.	4cc#)	.	4ccc#)	.	V\\
4r	.	4g#X	.	4r	.	4r	.	.
4r	.	4g)	p	(4a	p	(4aa	p	V2
=99	=99	=99	=99	=99	=99	=99	=99	=99
2D	p	2A 2f#	.	4f#	.	4ff#	.	I
.	.	.	.	4a	.	4aa	.	.
4AA	sf	4A 4f#	sf	4dd)	sf	4ddd)	sf	I64
=100	=100	=100	=100	=100	=100	=100	=100	=100
2E	.	2A 2g	.	(4dd	.	(4ddd	.	V43(4)
.	.	.	.	4cc#	.	4ccc#	.	V7
4AA	sf	4A 4g	sf	4dd)	sf	4ddd)	sf	V7(4)
=101	=101	=101	=101	=101	=101	=101	=101	=101
2C#	.	2A 2g	.	4ee	.	4eee	.	V65
.	.	.	.	8qff#/	.	8qfff#/	.	.
.	.	.	.	(8eeL	.	(8eeeL	.	.
.	.	.	.	8dd#X	.	8ddd#XJ	.	.
4AA	sf	4A 4g	sf	8ee	.	8eeeL	.	V7
.	.	.	.	8ff#J)	.	8fff#J)	.	.
=102	=102	=102	=102	=102	=102	=102	=102	=102
2D	.	2A 2f#	.	(4ee	.	(4eee	.	I(9)
.	.	.	.	4dd)	.	4ddd)	.	I
4F#	sf	([4d	sf	([4dd	sf	[4aaa	sf	I6
=103	=103	=103	=103	=103	=103	=103	=103	=103
2FF#	.	4d]	.	4dd]	.	2aaa]	.	.
.	.	4c#)	.	4cc#)	.	.	.	.
4F#	sf	([4c	sf	([4cc	sf	([4aaa	sf	V65/IV
=104	=104	=104	=104	=104	=104	=104	=104	=104
2GG	.	4c]	.	4cc]	.	4aaa]	.	IV(94)
.	.	4B)	.	4b)	.	4ggg)	.	IV
4G	sf	([4e	sf	([4ee	sf	([4ggg	sf	ii
=105	=105	=105	=105	=105	=105	=105	=105	=105
2AA	.	4e]	.	4ee]	.	4ggg]	.	V7
.	.	4d	.	4dd	.	4fff#	.	V(64)
!	!	!	!	!	!	!LO:TX:a:B:t=Menuetto D.C.	!	!
4A	.	4g)	.	4cc#)	.	4eee)	.	V7
=106	=106	=106	=106	=106	=106	=106	=106	=106
4D	.	4f#	.	4dd	.	4ddd	.	I\\
4r	.	4r	.	4r	.	4r	.	.
==	==	==	==	==	==	==	==	==
*-	*-	*-	*-	*-	*-	*-	*-	*-
!!!system-decoration: s1,s2,s3,s4
